X:2919
T:Polonaise
C:P. Hansen
O:Norway
S:Eidsvollmusikk II no. 79
R:Polonaise
Z:Transcribed by Frank Nordberg - http://www.musicaviva.com
F:http://abc.musicaviva.com/tunes/hansen-p/hansen-polonaise.abc
M:3/4
L:1/8
K:F
c2|aa/a/ a>g f>e|f3(cAB)|c>a e>f g>f|
e2d2z2|({d}b)b/b/ b>a g>f|g3(=fed)|e>c' b>g d>e|
f2f2::c2|BCEGdc|AEFdc z|ecgcbc|
faAB=Bc|({c}a3)(gfe)|d3(cBA)|G>AB>dc>E|
G2F2::\
K:Bb
DE|F/F/F G>F A>F|B>dg2f2|A>cg2f2|
B>dg2f2|d'/d'/d'c'2b2|c>ea2g2|(f=e)_ecGA|
B2B2 H :|
W:
W:
W:  From Musica Viva - http://www.musicaviva.com
W:  the Internet center for free sheet music downloads.
